X:1
T:Title
%%score ( 1 2 ) ( 3 4 )
L:1/8
Q:1/4=100
M:4/4
K:Eb
V:1 treble nm="Midi_20"
V:2 treble 
V:3 bass nm="Midi_20"
V:4 bass 
V:1
"^Sharon (87. 87.)""^William Boyce\n(1710-79)""^Come, Thou fount of every blessing" G2 E2 B2 E2 | %1
 FG A2 A2 G2 | c2 B2 d2 e2 | A2 G2 (G2 F2) || AG FE B2 d2 | cd e2 e2 d2 | e2 c2 A2 G2 | AG F2 E4 |] %8
V:2
 B,2 E2 D2 E2 | E2 D2 D2 E2 | E2 E2 BA G2 | F2 E2 (E2 D2) || B,2 B,2 B,2 F2 | G2 F2 F2 F2 | %6
 E2 E2 ED E2 | E2 ED B,4 |] %8
V:3
 B,2 G,2 F,2 E,2 | C2 B,2 B,2 B,2 | A,2 B,2 B,2 B,2 | B,2 B,2 B,4 || %4
"^1. Come, thou fount of every blessing,\nTune my heart to sing Thy grace;\nStreams of mercy never ceasing\nCall for songs of loudest praise.\n\n2. Jesus sought me when a stranger,\nWnadering from the fold of God;\nHe, to rescue me from danger,\nInterposed His precious blood.\n" B,2 A,G, F,2 B,2 | %5
 B,2 =A,2 B,2 B,2 | %6
"^3. O to grace how great a debtor\nDaily I'm constrained to be!\nLet that grace now, like a fetter,\nBind my wandering heart to Thee.\n\n4. Prone to wander - Lord, I feel it - \nProne to leave the God I love,\nTake my heart, O take and seal it,\nSeal it from Thy courts above.""^Robert Robinson (1735-90)" B,2 A,2 B,2 B,2 | %7
 CB, A,2 (A,2 G,2) |] %8
V:4
 E,2 E,2 B,,2 C,2 | A,,2 B,,2 E,2 E,2 | A,2 G,2 F,2 E,2 | D,2 E,2 B,,4 || E,2 E,2 D,2 B,,2 | %5
 E,2 F,2 B,2 B,!courtesy!_A, | G,2 A,2 F,2 E,2 | A,,2 B,,2 E,4 |] %8

